assets/icons/static_dynamic_events/engineering_design.svg

<svg fill="none" height="49" viewBox="0 0 50 49" width="50" xmlns="http://www.w3.org/2000/svg"><path d="m1.44713 40.3134c-1.981939 1.9615-1.901926 5.099.07935 7.1393 2.06169 1.9601 5.23699 1.9601 7.21893-.0791l24.98779-25.3404c2.1444-2.0402 3.4116-2.6684 5.157-2.1194 1.7457.6281 4.2061.6281 6.5072-.8636 4.9176-3.1372 4.5984-9.0218 4.5984-9.0218l-.3961-.62811s-4.4421 2.82471-4.9975 3.13901c-.7152.5489-3.1726 1.6475-5.3936-1.7265-2.3011-3.374-.3991-5.4914.236-5.88445.5554-.31389 4.9975-3.21566 4.9975-3.21566l-.396-.62847s-5.157-2.58958-9.995.23542c0 .15763-1.1905.86354-1.6659 1.25592-3.0956 2.74593-3.0956 5.80604-2.5402 8.31644.4785 2.2758 0 3.0598-1.8226 5.0216zm1.82535 1.6476c1.0312-1.0206 2.69715-1.0206 3.80695 0 .95119 1.0198.95119 2.7459 0 3.6858-1.11051 1.0211-2.77654 1.1774-3.80695.0791-1.03084-.9409-1.03084-2.7459 0-3.7649z" fill="#525252"/></svg>

<svg width="50" height="49" viewBox="0 0 50 49" fill="none" xmlns="http://www.w3.org/2000/svg">
<path d="M1.44713 40.3134C-0.534809 42.2749 -0.454796 45.4124 1.52648 47.4527C3.58817 49.4128 6.76347 49.4128 8.74541 47.3736L33.7332 22.0332C35.8776 19.993 37.1448 19.3648 38.8902 19.9138C40.6359 20.5419 43.0963 20.5419 45.3974 19.0502C50.315 15.913 49.9958 10.0284 49.9958 10.0284L49.5997 9.40029C49.5997 9.40029 45.1576 12.225 44.6022 12.5393C43.887 13.0882 41.4296 14.1868 39.2086 10.8128C36.9075 7.4388 38.8095 5.3214 39.4446 4.92835C40 4.61446 44.4421 1.71269 44.4421 1.71269L44.0461 1.08422C44.0461 1.08422 38.8891 -1.50536 34.0511 1.31964C34.0511 1.47727 32.8606 2.18318 32.3852 2.57556C29.2896 5.32149 29.2896 8.3816 29.845 10.892C30.3235 13.1678 29.845 13.9518 28.0224 15.9136L1.44713 40.3134ZM3.27248 41.961C4.30368 40.9404 5.96963 40.9404 7.07943 41.961C8.03062 42.9808 8.03062 44.7069 7.07943 45.6468C5.96892 46.6679 4.30289 46.8242 3.27248 45.7259C2.24164 44.785 2.24164 42.98 3.27248 41.961Z" fill="#525252"/>
</svg>
